X:13036
T:Meillionen
T:Clover Flowers
R:Set dance
C:Trad.
O:Wales
Z:Paul Hardy's Session Tunebook 2022 (see www.paulhardy.net). Creative Commons cc by-nc-sa licenced.
M:4/4
L:1/8
Q:1/4=120
K:G
D2|"G"G4 B2 AG|"D"FGAB c2 c2|"G"B4 cBAG|"D"F3 G ABcA|"G"G2 d2 B2 AG|"D"FGAB c2 dc|"G"B2 cB "D7"A3 G|"G"G6:|
|:Bc|"G"d2 G2 F2 G2|"D"A4 A2 Bc|"G"d4 cBAG|"D"FGAB cAGF|"G"G3 A B2 c2|"D7"dcBA "G"B2 AG|
"C"c3 d e2 d2|"D7"cdcB A2 Bc|"G"B2B2 cBAG|"D7"FGAB c2 dc|"G"B2B2 "D7"ABcA|"G"G2"D7"F2"G"G2:|

